src/lib/images/icons/discord.svg

<svg viewBox="0 0 40 30" fill="none" xmlns="http://www.w3.org/2000/svg">
<path d="M33.3193 2.48673C30.7676 1.31556 28.0748 0.480419 25.3082 0.00223793C25.283 -0.00267702 25.2568 0.000550849 25.2335 0.0114563C25.2103 0.0223618 25.191 0.0403811 25.1787 0.0629153C24.8343 0.67789 24.4505 1.47982 24.1816 2.11283C21.1993 1.65985 18.1656 1.65985 15.1833 2.11283C14.884 1.41143 14.5462 0.727088 14.1714 0.0629153C14.1585 0.0408857 14.1392 0.0232934 14.1161 0.0124604C14.093 0.00162734 14.0671 -0.00193699 14.0419 0.00223793C11.2751 0.479425 8.58211 1.3146 6.03082 2.48673C6.00922 2.49579 5.99091 2.51124 5.97834 2.53101C0.874872 10.1551 -0.52399 17.5905 0.163141 24.9325C0.164811 24.9507 0.17018 24.9684 0.178922 24.9845C0.187663 25.0005 0.199592 25.0147 0.213979 25.026C3.18487 27.2271 6.50822 28.9073 10.0421 29.995C10.067 30.0022 10.0935 30.0016 10.1181 29.9934C10.1427 29.9852 10.1642 29.9697 10.1798 29.949C10.9396 28.9167 11.6121 27.8229 12.1904 26.679C12.1985 26.6634 12.2031 26.6462 12.2041 26.6286C12.205 26.611 12.2022 26.5934 12.1958 26.577C12.1895 26.5606 12.1797 26.5457 12.1672 26.5333C12.1547 26.5209 12.1397 26.5113 12.1232 26.5052C11.0628 26.0994 10.0363 25.6103 9.05321 25.0424C9.03519 25.0319 9.02003 25.0172 9.00907 24.9995C8.99811 24.9818 8.99169 24.9617 8.99039 24.9409C8.98909 24.9201 8.99295 24.8994 9.00162 24.8804C9.01029 24.8615 9.02351 24.845 9.04009 24.8324C9.24712 24.6776 9.45052 24.5179 9.65015 24.3536C9.66761 24.3394 9.68866 24.3304 9.71096 24.3275C9.73326 24.3246 9.75592 24.328 9.77642 24.3372C16.2181 27.2776 23.1911 27.2776 29.5573 24.3372C29.578 24.3276 29.601 24.3241 29.6236 24.327C29.6462 24.3299 29.6676 24.3391 29.6852 24.3536C29.882 24.5143 30.0886 24.6783 30.2969 24.8324C30.3133 24.8448 30.3264 24.861 30.3351 24.8796C30.3439 24.8982 30.3479 24.9187 30.3469 24.9392C30.346 24.9597 30.34 24.9797 30.3296 24.9974C30.3191 25.0151 30.3045 25.0299 30.2871 25.0407C29.3062 25.614 28.2787 26.1033 27.2155 26.5035C27.1989 26.5099 27.1839 26.5196 27.1713 26.5322C27.1588 26.5447 27.149 26.5597 27.1427 26.5763C27.1364 26.5928 27.1336 26.6105 27.1345 26.6282C27.1355 26.6459 27.1401 26.6632 27.1482 26.679C27.7386 27.8237 28.4142 28.9126 29.1571 29.9474C29.1724 29.9685 29.1939 29.9842 29.2186 29.9925C29.2433 30.0007 29.27 30.001 29.2949 29.9933C32.8347 28.9091 36.1634 27.2286 39.1378 25.0243C39.1522 25.0141 39.1644 25.0009 39.1734 24.9856C39.1825 24.9704 39.1882 24.9534 39.1902 24.9358C40.0102 16.4458 37.816 9.07106 33.3701 2.53429C33.3597 2.51225 33.3417 2.49475 33.3193 2.48509V2.48673ZM13.153 20.4604C11.213 20.4604 9.61571 18.6811 9.61571 16.4934C9.61571 14.3074 11.1835 12.5264 13.153 12.5264C15.1374 12.5264 16.7215 14.3238 16.6904 16.495C16.6904 18.6811 15.1226 20.4604 13.153 20.4604V20.4604ZM26.2315 20.4604C24.2915 20.4604 22.6942 18.6811 22.6942 16.4934C22.6942 14.3074 24.2603 12.5264 26.2315 12.5264C28.2158 12.5264 29.8 14.3238 29.7688 16.495C29.7688 18.6811 28.2175 20.4604 26.2315 20.4604V20.4604Z" fill="#fff"/>
</svg>

<svg viewBox="0 0 40 30" fill="none" xmlns="http://www.w3.org/2000/svg"><path d="M33.32 2.487A32.457 32.457 0 0 0 25.307.002a.121.121 0 0 0-.13.06 22.87 22.87 0 0 0-.996 2.05 29.961 29.961 0 0 0-8.999 0 20.71 20.71 0 0 0-1.012-2.05.126.126 0 0 0-.13-.06 32.366 32.366 0 0 0-8.01 2.485.115.115 0 0 0-.053.044C.875 10.155-.524 17.591.163 24.933a.135.135 0 0 0 .051.093 32.637 32.637 0 0 0 9.828 4.969.128.128 0 0 0 .138-.046 23.093 23.093 0 0 0 2.01-3.27.125.125 0 0 0-.067-.174 21.498 21.498 0 0 1-3.07-1.463.127.127 0 0 1-.051-.162.127.127 0 0 1 .038-.048c.207-.154.41-.314.61-.478a.121.121 0 0 1 .126-.017c6.442 2.94 13.415 2.94 19.781 0a.121.121 0 0 1 .128.017c.197.16.404.324.612.478a.126.126 0 0 1-.01.209 20.165 20.165 0 0 1-3.072 1.462.127.127 0 0 0-.067.176 26.205 26.205 0 0 0 2.01 3.268.125.125 0 0 0 .137.046 32.533 32.533 0 0 0 9.843-4.969.125.125 0 0 0 .052-.088c.82-8.49-1.374-15.865-5.82-22.402a.1.1 0 0 0-.05-.049v.002zM13.152 20.46c-1.94 0-3.537-1.779-3.537-3.967 0-2.186 1.568-3.967 3.537-3.967 1.984 0 3.568 1.798 3.537 3.969 0 2.186-1.567 3.965-3.537 3.965zm13.079 0c-1.94 0-3.538-1.779-3.538-3.967 0-2.186 1.566-3.967 3.538-3.967 1.984 0 3.568 1.798 3.537 3.969 0 2.186-1.551 3.965-3.537 3.965z" fill="#fff"/></svg>
